src/animals-nature/animal-bug/1F41E.svg

<svg id="emoji" viewBox="0 0 72 72" version="1.1" xmlns="http://www.w3.org/2000/svg">
  <g id="grid">
    <path fill="#B3B3B3" d="M68,4v64H4V4H68 M72,0H0v72h72V0z"/>
    <path fill="none" stroke="#00A5FF" stroke-miterlimit="10" stroke-width="0.1" d="M12.923,10.9583h46.1539 c1.0621,0,1.9231,0.861,1.9231,1.9231v0v46.1538c0,1.0621-0.861,1.9231-1.9231,1.9231H12.9231 c-1.0621,0-1.9231-0.861-1.9231-1.9231l0,0V12.8813C11,11.8193,11.861,10.9583,12.923,10.9583L12.923,10.9583z"/>
    <path fill="none" stroke="#00A5FF" stroke-miterlimit="10" stroke-width="0.1" d="M18.2537,4h35.4926C54.991,4,56,5.009,56,6.2537 v59.4926C56,66.991,54.991,68,53.7463,68H18.2537C17.009,68,16,66.991,16,65.7463V6.2537C16,5.009,17.009,4,18.2537,4z"/>
    <path fill="none" stroke="#00A5FF" stroke-miterlimit="10" stroke-width="0.1" d="M68,18.2537v35.4926 C68,54.991,66.991,56,65.7463,56H6.2537C5.009,56,4,54.991,4,53.7463V18.2537C4,17.009,5.009,16,6.2537,16h59.4926 C66.991,16,68,17.009,68,18.2537z"/>
    <circle cx="36" cy="36" r="29" fill="none" stroke="#00A5FF" stroke-miterlimit="10" stroke-width="0.1"/>
  </g>
  <g id="color">
    <ellipse cx="36.0957" cy="23.5591" rx="9.5299" ry="9.1651" fill="#FFFFFF"/>
    <ellipse cx="36.1194" cy="39.8918" rx="14.5896" ry="15.8769" fill="#D22F27"/>
  </g>
  <g id="hair"/>
  <g id="skin"/>
  <g id="skin-shadow"/>
  <g id="line">
    <path fill="none" stroke="#000000" stroke-linecap="round" stroke-linejoin="round" stroke-miterlimit="10" stroke-width="2" d="M20.67,23.16c0,2.92,3.73,5.22,4.84,5.83"/>
    <path fill="none" stroke="#000000" stroke-linecap="round" stroke-linejoin="round" stroke-miterlimit="10" stroke-width="2" d="M16.38,37.75c0,0.65,3.49,1.8,5.15,2.32"/>
    <path fill="none" stroke="#000000" stroke-linecap="round" stroke-linejoin="round" stroke-miterlimit="10" stroke-width="2" d="M20.67,54.91c0-2.54,2.82-4.14,4.28-4.8"/>
    <path fill="none" stroke="#000000" stroke-linecap="round" stroke-linejoin="round" stroke-miterlimit="10" stroke-width="2" d="M47.2761,29.1642c0,0,4.291-3.4328,4.291-6.0075"/>
    <path fill="none" stroke="#000000" stroke-linecap="round" stroke-linejoin="round" stroke-miterlimit="10" stroke-width="2" d="M50.7,39.41c1.13-0.12,3.12-0.48,4.3-1.66"/>
    <path fill="none" stroke="#000000" stroke-linecap="round" stroke-linejoin="round" stroke-miterlimit="10" stroke-width="2" d="M46.85,50.65c1.11,0.1,4.03,0.64,4.72,3.4"/>
    <path fill="none" stroke="#000000" stroke-linecap="round" stroke-linejoin="round" stroke-miterlimit="10" stroke-width="2" d="M30.11,12c0.67,2.66,1.85,3.26,2.35,3.39"/>
    <path fill="none" stroke="#000000" stroke-linecap="round" stroke-linejoin="round" stroke-miterlimit="10" stroke-width="2" d="M41.2687,15.4328c0,0,2.3467-2.0597,1.76-3.4328"/>
    <ellipse cx="36.1194" cy="39.8918" rx="14.5896" ry="15.8769" fill="none" stroke="#000000" stroke-linecap="round" stroke-linejoin="round" stroke-miterlimit="10" stroke-width="2"/>
    <line x1="36.1194" x2="36.1194" y1="24.8731" y2="54.9104" fill="none" stroke="#000000" stroke-linecap="round" stroke-linejoin="round" stroke-miterlimit="10" stroke-width="2"/>
    <circle cx="27.5373" cy="35.1716" r="1.7164"/>
    <circle cx="44.7015" cy="35.1716" r="1.7164"/>
    <circle cx="41.2687" cy="40.3209" r="1.7164"/>
    <circle cx="44.7015" cy="45.4701" r="1.7164"/>
    <circle cx="30.9701" cy="40.3209" r="1.7164"/>
    <circle cx="27.5373" cy="45.4701" r="1.7164"/>
    <path fill="none" stroke="#000000" stroke-linecap="round" stroke-linejoin="round" stroke-miterlimit="10" stroke-width="2" d="M27.5373,23.1567c0-4.7398,3.8423-8.5821,8.5821-8.5821s8.5821,3.8423,8.5821,8.5821"/>
  </g>
</svg>

<svg id="emoji" viewBox="0 0 72 72" xmlns="http://www.w3.org/2000/svg">
  <g id="grid">
    <path fill="#b3b3b3" d="M68,4V68H4V4H68m4-4H0V72H72V0Z"/>
    <path fill="none" stroke="#00a5ff" stroke-miterlimit="10" stroke-width="0.1" d="M12.9231,10.9583H59.077A1.923,1.923,0,0,1,61,12.8813V59.0352a1.9231,1.9231,0,0,1-1.9231,1.9231H12.9231A1.9231,1.9231,0,0,1,11,59.0352V12.8814a1.9231,1.9231,0,0,1,1.9231-1.9231Z"/>
    <rect x="16" y="4" rx="2.2537" width="40" height="64" fill="none" stroke="#00a5ff" stroke-miterlimit="10" stroke-width="0.1"/>
    <rect x="16" y="4" rx="2.2537" width="40" height="64" transform="rotate(90 36 36)" fill="none" stroke="#00a5ff" stroke-miterlimit="10" stroke-width="0.1"/>
    <circle cx="36" cy="36" r="29" fill="none" stroke="#00a5ff" stroke-miterlimit="10" stroke-width="0.1"/>
  </g>
  <g id="color">
    <ellipse cx="36.4596" cy="21.9147" rx="11.0195" ry="11.0971" fill="#3f3f3f"/>
    <ellipse cx="36.4865" cy="40.6831" rx="16.5287" ry="17.9871" fill="#d22f27"/>
  </g>
  <g id="line">
    <path fill="none" stroke="#000" stroke-linecap="round" stroke-linejoin="round" stroke-width="2" d="M18.9837,21.7274c0,3.3082,4.2257,5.9138,5.4833,6.6049"/>
    <path fill="none" stroke="#000" stroke-linecap="round" stroke-linejoin="round" stroke-width="2" d="M14.1235,38.2566c0,.7364,3.9538,2.0393,5.8345,2.6284"/>
    <path fill="none" stroke="#000" stroke-linecap="round" stroke-linejoin="round" stroke-width="2" d="M18.9837,57.6974c0-2.8776,3.1948-4.69,4.8488-5.438"/>
    <path fill="none" stroke="#000" stroke-linecap="round" stroke-linejoin="round" stroke-width="2" d="M49.126,28.53s4.8614-3.8891,4.8614-6.806"/>
    <path fill="none" stroke="#000" stroke-linecap="round" stroke-linejoin="round" stroke-width="2" d="M53.005,40.1373a8.4318,8.4318,0,0,0,4.8715-1.8807"/>
    <path fill="none" stroke="#000" stroke-linecap="round" stroke-linejoin="round" stroke-width="2" d="M48.6433,52.8712c1.2575.1133,4.5656.7251,5.3473,3.8519"/>
    <path fill="none" stroke="#000" stroke-linecap="round" stroke-linejoin="round" stroke-width="2" d="M29.6784,9.0842c.759,3.0135,2.0958,3.6932,2.6623,3.8405"/>
    <path fill="none" stroke="#000" stroke-linecap="round" stroke-linejoin="round" stroke-width="2" d="M42.32,12.9732s2.6586-2.3334,1.9939-3.889"/>
    <ellipse cx="36.4865" cy="40.6831" rx="16.5287" ry="17.9871" fill="none" stroke="#000" stroke-linecap="round" stroke-linejoin="round" stroke-width="2"/>
    <line x1="36.4865" x2="36.4865" y1="23.6682" y2="57.6979" fill="none" stroke="#000" stroke-linecap="round" stroke-linejoin="round" stroke-width="2"/>
    <circle cx="26.8192" cy="35.2801" r="2"/>
    <circle cx="46.2647" cy="35.2801" r="2"/>
    <circle cx="42.3756" cy="41.1138" r="2"/>
    <circle cx="46.2647" cy="46.9474" r="2"/>
    <circle cx="30.7082" cy="41.1138" r="2"/>
    <circle cx="26.8192" cy="46.9474" r="2"/>
    <path fill="none" stroke="#000" stroke-linecap="round" stroke-linejoin="round" stroke-width="2" d="M26.46,21.7237a10.004,10.004,0,0,1,20,0"/>
  </g>
</svg>
